X: 4
T: The Bus Stop
R: reel
M: 4/4
L: 1/8
K: Ador
|:A2 eA dAcB|ABcA BAGB|A2 eA dAcA|(3Bcd ef gedB|
A2 eA dAcB|ABcA BAGA|(3EFG Ac BAGB|1 A2 AG A2 (3EFG:|2 A2 AG ABce||
|:ea2g edcB|ABcd e2cB|Aaag edc2|defd e2 cB|
Aa2g edcB|ABcd e2dc|cBAG (3EFG AB|1 A2 AG ABce:|2 A2 AG A2 (3EFG||